!!!COM: Jorge, Santos
!!!CDT: 1870-1941
!!!OTL: National Anthem, Panama
!!!ENC: Davis, Matthew J.
!!Vocal Line Only
**kern
*clefG2
*k[f#c#]
*X:
*M4/4
=1-
1r
=2
1r
=3
1r
=4
1r
=5
2r
4r
==6
!Chorus
8.A
16A
=7
4f#
8.f#
16f#
8a
8f#
8.d
16f#
=8
2a
8f#
8r
8.a
16a
=9
4dd
8.d
16e
4f#
8.f#
16g
=10
4e
4r
4r
8.A
16A
=11
4f#
8.f#
16f#
4f#
8.g
16a
=12
2b
8dd
8r
8.d
16e
=13
4f#
8.g
16a
8cc#
8b
8g
8c#
=14
2e
8d
8r
8.A
16A
=15
4f#
8.f#
16f#
4f#
8.g
16a
=16
2b
8dd
8r
8.d
16e
=17
4f#
8.g
16a
8cc#
8b
8g
8e
=18
4d
4r
4r
!Fine
==19
*k[f#]
8.d
16d
=20
4b
8.b
16a#
4b
8.dd
16ccn
=21
2b
8g
8r
8.b
16b
=22
4cc
8.cc
16b
4cc
8.dd
16cc
=23
2b
8dd
8r
8.d
16d
=24
4b
8.b
16b
4b
8.b
16b
=25
2cc
8cc
8r
8.cc
16cc
=26
4dd
8.dd
16a
4dd
8.dd
16a
=27
4dd
4r
4r
8.d
16d
=28
4b
8.b
16g
4e
8.e
16cc
=29
2b
8g
8r
8.g
16g
=30
4a
8.a
16a
4a
8.b
16a
=31
4a
4r
4r
8.a
16a
=32
4dd
8.d
16d
4d
8.d
16d
=33
2b
8b
8r
8.b
16b
=34
4cc#
8.cc#
16cc#
4cc#
8.cc#
16cc#
=35
4dd
4r
4r
!D. (Coda Symbol) al Fine
==
*-
